X: 26467
T: Metsäkukkia
R: waltz
M: 3/4
K: Gminor
|:D2G2>A2|B2A2G2|d6|d6|D2G3A|B2 (3ABAG2|e6|e2d2c2|
c2d3e|e2d2_d2|=d2d ed_d|(3=ded (3cdc (3BcB|D2_G3A|c2B2A2|=Gx2 AG_G|1 =G4z2:|2 =Gz g3f||
|:f6|f2g3e|d6|d2e3d|c6|c2d3c|B6|B2d2d2|
d6|(3ded (3cdc (3BcB|A6|G2_G2A2|D2<_D2=D2|B4A2|=G6|1 Gxg2>f2:|2 G2 z2 g^f||
|:g2 z2 d^c|d2 z2 BA|(3BcB (3ABA (3GAG|Gz (3Bcd g2|e4 d2|c2 e2 g2|(d6|d6)|
d2 ^f3 g|a4 z2|d2 g3 a|b4 z2|d2 ^f3 a|b2 z2 a2|1 (g6|g2) z2 g^f:|2 (g6|g2) z4||

